X: 1
T:Innerst\aa{}frid'n (senpolska fr\aa{}n \"ostra J\"amtland)
O:Sweden
A:J\"amtland
R:Senpolska
R:Polska
M:3/4
D:\"Ostersunds Spelmanslag CD TLSCD1996
K:Gm
g2d3 c|e>d dc cA| B/A/B/c/ d2 Bc/B/| AB/A/ GA/G/ ^FD|\
g>d d3 c|e>d dc cA|
B/A/B/c/ d2 Bc/B/|1 A^F G4 :|2 A^F G3 |:\
A|\
B/c/B/A/ G>A Bc | d>g ^fg d2|
g>^f gb ag| f>g fe d2|\
{^f}g2d3 c|e>d dc cA| B/A/B/c/ d2 Bc/B/|1 A^F G3 :|2  A^F G4|]
